X:1041
T:Doonaree
C:Joe Buchanan's Scottish Tome - Page 631.0
I:631 0
Z:Carl Allison
C:Pride of Erin Waltz
R:Waltz
L:1/4
M:3/4
K:F
W:Intro
%%vskip 0
"Bb"F2 E/G/ | "Gm"G2 "C7"F/D/ | "F"C F A | "F"c2 B/A/ | "G7"A2 G | "C7"D2 E | "F"F3- | "F"F2 |
%%vskip 20
|:"C7"C | "F"F2 A | "F"c2 F | "G7"E2 D | "C7"B,2 D | "F"F2 A | "F"c2 F | "C7"E3 | "C7"E G A |
"Bb"B2 B | "Bb"D2 "C7"E/D/ | "F"C2 F | "Dm"A2 A | "G7"A2 G | "G7"G2 A | "C7"G3- | "C7"G2 C |
"F"F2 A | "F"c2 F | "G7"E2 D | "C7"C2 C | "Dm"F2 F | "Gm"G2 G | "A7"A3- | "A7"A2 A |
"Bb"B2 B | "Bb"D2 E/D/ | "F"C2 F | "F"A2 A | "G7"A2 G | "G7"G2 A | "C7"G3- | "C7"G2 A |
"F"c2 A | "D7"c2 A | "Gm"B2 A | "C7"G2 F/G/ | "F"A2 A | "F7"G2 F | "Bb"D3- | "Bb"D2 "C7"E |
"Bb"F2 E/F/ | "Bb"G2 F/D/ | "F"C2 F | "F"A2 A | "G7"A2 G | "G7"G2 A | "C7"G3- | G2 A/B/ |
"F"c2 B/A/ | "D7"c2 B/A/ | "Gm"B2 A |  "C7"G2 F/G/ | "F"A2 A | "F7"G2 F | "Bb"D3- | "Bb"D2 "C7"E |
"Bb"F2 E/F/ | "Gm"G2 F/D/ | "F"C F A | ""c2 B/A/ | "G7"A2 G | "C7"D2 E | "F"F3- | "F"F2 :|
%
W:Errata: Added repeat symbol on first measure of tune body to separate it from the intro.
